svgs/light/headphones-simple.svg

<svg xmlns="http://www.w3.org/2000/svg" viewBox="0 0 512 512"><!-- Font Awesome Pro 6.0.0-alpha2 by @fontawesome - https://fontawesome.com License - https://fontawesome.com/license (Commercial License) --><path d="M384 256.062H352C334.375 256.062 320 270.438 320 288.062V448.062C320 465.687 334.375 480.062 352 480.062H384C419.375 480.062 448 451.312 448 415.938V320.188C448 284.812 419.375 256.062 384 256.062ZM416 415.938C416 433.562 401.625 448.062 384 448.062H352V288.062H384C401.625 288.062 416 302.562 416 320.187V415.938ZM160 256.062H128C92.625 256.062 64 284.812 64 320.187V415.937C64 451.312 92.625 480.062 128 480.062H160C177.625 480.062 192 465.687 192 448.062V288.062C192 270.438 177.625 256.062 160 256.062ZM160 448.062H128C110.375 448.062 96 433.562 96 415.938V320.188C96 302.563 110.375 288.063 128 288.063H160V448.062ZM243.025 32.385C105.537 39.215 0 157.861 0 295.518V400.062C0 408.863 7.201 416.062 16 416.062C24.801 416.062 32 408.863 32 400.062V294.572C32 174.111 124.369 70.299 244.684 64.344C373.301 57.977 480 160.811 480 288.062V400.062C480 408.863 487.201 416.062 496 416.062C504.801 416.062 512 408.863 512 400.062V288.062C512 142.637 390.016 25.084 243.025 32.385Z"/></svg>

<svg xmlns="http://www.w3.org/2000/svg" viewBox="0 0 512 512"><!--! Font Awesome Pro 6.3.0 by @fontawesome - https://fontawesome.com License - https://fontawesome.com/license (Commercial License) Copyright 2023 Fonticons, Inc. --><path d="M383.1 256L352 256.1c-17.62 0-32 14.38-32 32v159.9c0 17.62 14.38 32.05 32 32.05l31.99 .0156C419.4 480 448 451.3 448 415.9v-95.75C448 284.8 419.4 256 383.1 256zM416 415.9c0 17.62-14.38 32.13-32 32.13h-32V288l32 .0417c17.62 0 32 14.5 32 32.13V415.9zM160 256.1L127.1 256C92.62 256 64 284.8 64 320.2v95.75c0 35.38 28.62 64.09 63.99 64.09L160 480c17.62 0 32-14.42 32-32.05V288.1C192 270.4 177.6 256.1 160 256.1zM160 448.1H128c-17.62 0-32-14.5-32-32.13v-95.75c0-17.62 14.38-32.13 32-32.13l32-.0417V448.1zM243 32.38C105.5 39.21 0 157.9 0 295.5v104.5c0 8.801 7.201 16 16 16c8.801 0 16-7.168 16-15.97V294.6C32 174.1 124.4 70.3 244.7 64.34C373.3 57.98 480 160.8 480 288.1v112c0 8.801 7.201 15.97 16 15.97c8.801 0 16-7.199 16-16V287.1C512 142.5 390 25.08 243 32.38z"/></svg>
